src/icons/brand/glyph/BehanceIcon.svg

<svg width="24" height="24" viewBox="0 0 24 24" fill="none" xmlns="http://www.w3.org/2000/svg">
<path d="M7.78387 6C8.3691 6 8.90096 6.04801 9.38449 6.15041C9.86551 6.25443 10.2765 6.41445 10.6225 6.63849C10.9643 6.86252 11.2335 7.15855 11.4228 7.53461C11.6103 7.91066 11.7062 8.37473 11.7062 8.91879C11.7062 9.51087 11.5645 10.0069 11.2836 10.407C11.0018 10.807 10.5858 11.1271 10.0314 11.3831C10.7867 11.5911 11.3453 11.9592 11.7171 12.4793C12.0905 13.0073 12.2714 13.6394 12.2714 14.3675C12.2714 14.9676 12.1631 15.4797 11.9296 15.9117C11.6962 16.3518 11.3711 16.7118 10.9626 16.9919C10.5625 17.2703 10.0873 17.4719 9.57042 17.6055C9.06188 17.7376 8.52668 17.8088 7.97814 17.8088H2V6.00557H7.78389L7.78387 6ZM16.1221 15.7309C16.4889 16.0733 17.0166 16.2454 17.701 16.2454C18.1929 16.2454 18.618 16.127 18.9765 15.8877C19.33 15.6557 19.5434 15.3997 19.6268 15.1356H21.7843C21.4483 16.1598 20.9106 16.8959 20.2003 17.3359C19.4917 17.784 18.6297 18 17.6327 18C16.9349 18 16.3122 17.896 15.7386 17.68C15.1775 17.4639 14.7049 17.1599 14.3047 16.7678C13.9179 16.3758 13.6186 15.9037 13.4069 15.3516C13.1959 14.7996 13.0959 14.1915 13.0959 13.5354C13.0959 12.8929 13.2084 12.3032 13.4319 11.7512C13.657 11.1911 13.9687 10.727 14.3656 10.319C14.7782 9.91091 15.2517 9.60287 15.8128 9.36364C16.3738 9.12441 16.9799 9.01719 17.6635 9.01719C18.4221 9.01719 19.0724 9.1484 19.6476 9.43565C20.2062 9.70769 20.6647 10.0917 21.0315 10.5558C21.3983 11.0247 21.6567 11.5639 21.8151 12.172C21.9735 12.7721 22.0235 13.4042 21.9902 14.0763H15.5794C15.5794 14.7484 15.8128 15.3821 16.1713 15.7285L16.1046 15.7525L16.1221 15.7309ZM7.58547 15.7709C7.84974 15.7709 8.10233 15.7469 8.34076 15.6965C8.58252 15.6485 8.7976 15.5645 8.97685 15.4565C9.15192 15.3485 9.30197 15.194 9.41036 14.99C9.51874 14.798 9.56876 14.5339 9.56876 14.2219C9.56876 13.6218 9.38535 13.1898 9.03521 12.9257C8.67673 12.6697 8.20989 12.5417 7.62633 12.5417H4.70104V15.7821H7.58549L7.58547 15.7709ZM18.929 11.2503C18.6356 10.9423 18.1454 10.7766 17.5476 10.7766C17.1575 10.7766 16.8349 10.8358 16.5756 10.9671C16.3238 11.0871 16.1171 11.2471 15.9587 11.4391C15.8003 11.6312 15.6944 11.8232 15.6319 12.0392C15.5694 12.2472 15.5319 12.4393 15.5194 12.6073H19.4892C19.4309 12.0072 19.2141 11.5671 18.9224 11.2551L18.929 11.2503ZM7.43542 10.7582C7.91394 10.7582 8.31075 10.651 8.62337 10.4286C8.93515 10.2126 9.08521 9.85252 9.08521 9.35805C9.08521 9.08282 9.02685 8.85798 8.93515 8.68116C8.82677 8.50513 8.68506 8.36912 8.51833 8.27151C8.34327 8.17229 8.14319 8.10349 7.9181 8.06589C7.69301 8.02349 7.45126 8.00669 7.21783 8.00669H4.6927V10.7591L7.43542 10.7582ZM15.02 6.7913H19.9953V7.95465H15.02V6.7817V6.7913Z" fill="currentColor"/>
</svg>

<svg xmlns="http://www.w3.org/2000/svg" width="24" height="24" fill="currentColor" viewBox="0 0 24 24">
  <path d="M7.784 6c.585 0 1.117.048 1.6.15.482.104.893.264 1.239.488.341.225.61.52.8.897.187.376.283.84.283 1.384 0 .592-.141 1.088-.422 1.488-.282.4-.698.72-1.253.976.756.208 1.314.576 1.686 1.096.373.528.554 1.16.554 1.889 0 .6-.108 1.112-.341 1.544-.234.44-.559.8-.967 1.08-.4.278-.876.48-1.393.613a6.335 6.335 0 0 1-1.592.204H2V6.006h5.784V6Zm8.338 9.73c.367.343.895.515 1.579.515.492 0 .917-.118 1.276-.357.353-.232.566-.488.65-.752h2.157c-.336 1.024-.873 1.76-1.584 2.2-.708.448-1.57.664-2.567.664-.698 0-1.32-.104-1.894-.32a4.142 4.142 0 0 1-1.434-.912 4.054 4.054 0 0 1-.898-1.416 5.057 5.057 0 0 1-.311-1.817c0-.642.112-1.232.336-1.784.225-.56.537-1.024.934-1.432a4.541 4.541 0 0 1 1.447-.955c.56-.24 1.167-.347 1.85-.347.76 0 1.41.131 1.985.419a3.964 3.964 0 0 1 1.384 1.12c.366.469.625 1.008.783 1.616.159.6.208 1.232.175 1.904h-6.41c0 .672.233 1.306.591 1.652l-.066.024.017-.021Zm-8.537.04c.265 0 .517-.023.756-.073.242-.048.457-.132.636-.24a1.21 1.21 0 0 0 .433-.467c.109-.192.159-.456.159-.768 0-.6-.184-1.032-.534-1.296-.358-.256-.825-.384-1.409-.384H4.701v3.24h2.884v-.011Zm11.344-4.52c-.293-.308-.784-.473-1.381-.473-.39 0-.713.059-.972.19a1.78 1.78 0 0 0-.617.472 1.644 1.644 0 0 0-.327.6c-.063.208-.1.4-.113.568h3.97c-.058-.6-.275-1.04-.567-1.352l.007-.005Zm-11.494-.492c.479 0 .876-.107 1.188-.33.312-.215.462-.575.462-1.07 0-.275-.058-.5-.15-.677a1.194 1.194 0 0 0-.417-.41 1.813 1.813 0 0 0-.6-.205 3.84 3.84 0 0 0-.7-.06H4.693v2.753h2.742Zm7.585-3.967h4.975v1.164H15.02V6.782v.01Z"/>
</svg>
